rospo-icon-theme-classic-common/22x22/apps/foursquare.svg

<svg height="22" width="22" xmlns="http://www.w3.org/2000/svg"><g transform="translate(-1 -1)"><rect height="20" opacity=".2" rx="1" transform="matrix(0 -1 -1 0 0 0)" width="20" x="-22.5" y="-22"/><rect fill="#fa4778" height="20" rx="1" transform="matrix(0 -1 -1 0 0 0)" width="20" x="-22" y="-22"/><path d="m3 2c-.554 0-1 .446-1 1v .5c0-.554.446-1 1-1h18c .554 0 1 .446 1 1v-.5c0-.554-.446-1-1-1z" fill="#fff" opacity=".2"/><path d="m8 6.5v12l4-5h2.75l.525-3.5h-3.275 3.275l.725-3.5z" fill="none" opacity=".2" stroke="#000" stroke-linejoin="round" stroke-width="2"/><path d="m8 6v12l4-5h2.75l.525-3.5h-3.275 3.275l.725-3.5z" fill="none" stroke="#fff" stroke-linejoin="round" stroke-width="2"/></g></svg>

<svg xmlns="http://www.w3.org/2000/svg" width="22" height="22" version="1">
 <g transform="translate(-1,-1)">
  <rect style="opacity:0.2" width="20" height="20" x="-22.5" y="-22" rx="1" ry="1" transform="matrix(0,-1,-1,0,0,0)"/>
  <rect style="fill:#fa4778" width="20" height="20" x="-22" y="-22" rx="1" ry="1" transform="matrix(0,-1,-1,0,0,0)"/>
  <path style="opacity:0.2;fill:#ffffff" d="M 3,2 C 2.446,2 2,2.446 2,3 V 3.5 C 2,2.946 2.446,2.5 3,2.5 H 21 C 21.554,2.5 22,2.946 22,3.5 V 3 C 22,2.446 21.554,2 21,2 Z"/>
  <path style="opacity:0.2;fill:none;stroke:#000000;stroke-width:2;stroke-linejoin:round" d="M 8,6.5 V 18.5 L 12,13.5 H 14.75 L 15.275,10 H 12 15.275 L 16,6.5 Z"/>
  <path style="fill:none;stroke:#ffffff;stroke-width:2;stroke-linejoin:round" d="M 8,6 V 18 L 12,13 H 14.75 L 15.275,9.5 H 12 15.275 L 16,6 Z"/>
 </g>
</svg>
